!!!OTL-incipit: ES WAREN ZWEI KOENIGSKINDER
!!!ARE: Europa, Mitteleuropa, Deutschland
!!!SCT: Z0025
!!!TXL: @@DE
!!!YEM: Copyright 1995, estate of Helmut Schaffrath.
**kern	**text
*ICvox	*
*M2/4	*
*k[f#]	*
*G:	*
{8d	Es
=1	=1
16dL	wa-
16bJ	.
16b/	-ren
16b/	ʒwei
16bqq	.
8a	Kö-
8a	-nigs-
=2	=2
16aqq	.
8g	-kin-
8g	-der,
8r}	.
{8d	die
=3	=3
16dL	hat-
16ccJ	.
16cc/	-ten
16cc/	ein-
16cc/L	-an-
16bJ	.
16dd/L	-der
16bJ	ſo
=4	=4
8bqq	.
4a	lieb,
8r}	.
{8d	ſie
=5	=5
16dL	konn-
16ddJ	.
16dd	-ten
16dd	nicht
16ddL	ʒu
16ccJ	.
16cc	ein-
16r	.
=6	=6
(8.bL	-an-
16ggJ)	.
16ddL	-der,
16ccJ}	.
{16bL	das
16aJ	.
=7	=7
8g	Waſ-
16g	-ſer
16g	war
16bqq	.
8a	viel
16.aL	ʒu
32bJ	.
=8	=8
8g	tief,
8r}	.
{8.a/L	das
16ccJ	.
=9	=9
16bL	Waſ-
16ggJ	.
16dd	-ſer
16b	war
16ddL	viel
16ccJ	.
16aL	ʒu
16bJ	.
=10	=10
4g	tief.
8r}	.
==:|;;	==:|;;
!!!AGN: Sagen - Lied, Romanze, Tod; +++ 265 nach Geh r ge ndert. +++
!!!ONB: ESAC (Essen Associative Code) Database: ZUCCAL
!!!AMT: simple duple
!!!AIN: vox
!!!EED: Helmut Schaffrath
!!!EEV: 1.0
!!!GTL: I. Ernste Romanzen und Sagen.
!!!URL-scan: https://www.digitale-sammlungen.de/de/view/bsb11160571?page=54
!!!ENC: Anna Maria Matuszewska
!!!EEV: 2025/01/23
*-	*-
